packages/foundations/assets/icons/functional/images/technology/wifi_disabled_20.svg

<svg width="20" height="20" viewBox="0 0 20 20" fill="none" xmlns="http://www.w3.org/2000/svg">
<g clip-path="url(#clip0_187_660)">
<path fill-rule="evenodd" clip-rule="evenodd" d="M11.468 13.2479C12.0806 13.585 12.5 14.2346 12.5 15C12.5 16.0938 11.625 17 10.5 17C9.75032 17 9.08872 16.5889 8.74667 15.968L11.468 13.2479ZM10.5625 3C12.1347 3 13.6782 3.34463 15.0875 3.99684L15.7929 3.29289C16.1834 2.90237 16.8166 2.90237 17.2071 3.29289C17.5676 3.65338 17.5953 4.22061 17.2903 4.6129L17.2071 4.70711L5.20711 16.7071C4.81658 17.0976 4.18342 17.0976 3.79289 16.7071C3.43241 16.3466 3.37199 15.77 3.79289 15.2929C5.63333 13.452 7.01366 12.0713 7.93388 11.1508C7.95503 11.1236 7.93388 11.0805 7.90625 11.0805C7.71875 11.2685 7.46875 11.3624 7.1875 11.3624C6.59375 11.3624 6.1875 10.83 6.1875 10.3602C6.1875 10.1096 6.28125 9.82774 6.5 9.63982C7.65625 8.54363 8.90625 7.97987 10.5625 7.97987C10.737 7.97987 10.9102 7.98759 11.0819 8.00286L13.5731 5.51312C12.62 5.15855 11.6036 4.97316 10.5625 4.97316C8.09375 4.97316 5.875 5.88143 4.1875 7.57271C4 7.76063 3.75 7.88591 3.5 7.88591C3.0625 7.88591 2.5 7.54139 2.5 6.88367C2.5 6.60179 2.59375 6.38255 2.78125 6.16332C4.9375 4.03357 7.40625 3 10.5625 3Z" fill="#1A1C1F"/>
</g>
<defs>
<clipPath id="clip0_187_660">
<rect width="20" height="20" fill="white"/>
</clipPath>
</defs>
</svg>

<svg xmlns="http://www.w3.org/2000/svg" width="20" height="20" fill="none"><g clip-path="url(#a)"><path fill="#1A1C1F" fill-rule="evenodd" d="M11.468 13.248A1.99 1.99 0 0 1 12.5 15c0 1.094-.875 2-2 2-.75 0-1.411-.411-1.753-1.032zM10.563 3c1.572 0 3.115.345 4.525.997l.705-.704a1 1 0 0 1 1.497 1.32l-.083.094-12 12a1 1 0 0 1-1.414 0c-.36-.36-.421-.937 0-1.414l4.14-4.142c.022-.027 0-.07-.027-.07a.99.99 0 0 1-.718.281c-.594 0-1-.532-1-1.002 0-.25.093-.532.312-.72 1.156-1.096 2.406-1.66 4.063-1.66q.261 0 .519.023l2.491-2.49a8.6 8.6 0 0 0-3.01-.54c-2.47 0-4.688.908-6.376 2.6-.187.188-.437.313-.687.313-.437 0-1-.345-1-1.002 0-.282.094-.501.281-.72C4.938 4.033 7.406 3 10.562 3" clip-rule="evenodd"/></g><defs><clipPath id="a"><path fill="#fff" d="M0 0h20v20H0z"/></clipPath></defs></svg>
